X:01
T:One for Leo – a lovely jig by Yvonne Kane of the famous sisters of Letterfrack
M:4/4
Z: Contributed 2016-08-29 14:08:13 by Sean Clohessy sean.clohessy@gmail.com
K: G

DGB BAB | cBc Aag | f2 a gfd | 1cAG AGF | 2fdc AGF |
DGB BAB | cBc Aag | fed cAF | AGF G3 :|


g3 bgd | BGF G2 e | _f3 Ac_f | agf def |
g3 bgd | BGF G2 e | fdB cAF | AGF G3 :|

